X: 6513
T: Cat's Meow, The
R: jig
M: 6/8
K: Dmajor
A2G|:FAd f2g|afe dBA|B3 BAF|dAF EAG|
FAd f2g|afe dBA|Bde fdB|1 AFE DAG:|2 AFE Dge||
|:fdB AFA|DFA dfa|gef ged|ced cBA|
fdB AFA|DFA dfa|gec aed|1 cec dge:|2 cec dAG||
|:FAd faa|agf agf|Ace g3|gfe gfe|
f2d g2e|agf efg|faf gec|edc dAG:|

